img/index/termometr.svg

<svg width="49" height="49" viewBox="0 0 49 49" fill="none" xmlns="http://www.w3.org/2000/svg">
<circle cx="24.5" cy="24.5" r="23.5" stroke="#323232" stroke-width="2"/>
<path d="M27.5905 15.1189C27.5905 14.0265 27.1691 12.9789 26.4189 12.2064C25.6688 11.434 24.6514 11 23.5905 11C22.5296 11 21.5122 11.434 20.7621 12.2064C20.0119 12.9789 19.5905 14.0265 19.5905 15.1189V27.1073C18.565 28.185 17.9936 29.6355 18.0001 31.1443C17.9973 32.1106 18.2275 33.0625 18.67 33.9146C19.1125 34.7667 19.7535 35.4924 20.5354 36.0266C21.3174 36.5608 22.2158 36.8868 23.1503 36.9754C24.0847 37.064 25.0259 36.9124 25.8894 36.5341C26.7529 36.1559 27.5117 35.5629 28.0979 34.8083C28.684 34.0536 29.0791 33.161 29.2477 32.2105C29.4163 31.2599 29.3531 30.2811 29.0639 29.3618C28.7747 28.4426 28.2684 27.6116 27.5905 26.9435V15.1189ZM27.7336 31.1443C27.7417 31.8589 27.5722 32.5637 27.2413 33.1919C26.9104 33.82 26.4291 34.3507 25.8431 34.7334C25.257 35.1162 24.5857 35.3383 23.8929 35.3788C23.2 35.4192 22.5086 35.2767 21.8843 34.9646C21.26 34.6525 20.7235 34.1813 20.3258 33.5957C19.928 33.0101 19.6823 32.3295 19.6118 31.6186C19.5414 30.9077 19.6485 30.19 19.9232 29.5337C20.1978 28.8774 20.6308 28.3043 21.181 27.8688V15.1189C21.181 14.4609 21.4348 13.8298 21.8867 13.3645C22.3386 12.8992 22.9514 12.6377 23.5905 12.6377C24.2295 12.6377 24.8424 12.8992 25.2943 13.3645C25.7462 13.8298 26 14.4609 26 15.1189V27.7132C26.5367 28.0983 26.9748 28.6116 27.2767 29.2092C27.5786 29.8067 27.7354 30.4707 27.7336 31.1443Z" fill="#323232"/>
<path d="M24.4573 28.5812V15.1763C24.4573 14.9591 24.3735 14.7508 24.2244 14.5972C24.0752 14.4437 23.873 14.3574 23.6621 14.3574C23.4512 14.3574 23.2489 14.4437 23.0998 14.5972C22.9506 14.7508 22.8668 14.9591 22.8668 15.1763V28.5812C22.3363 28.7744 21.8891 29.1545 21.6043 29.6544C21.3196 30.1542 21.2156 30.7416 21.3107 31.3128C21.4059 31.8839 21.6941 32.4021 22.1244 32.7756C22.5546 33.1491 23.0993 33.354 23.6621 33.354C24.2248 33.354 24.7695 33.1491 25.1998 32.7756C25.63 32.4021 25.9182 31.8839 26.0134 31.3128C26.1085 30.7416 26.0046 30.1542 25.7198 29.6544C25.4351 29.1545 24.9879 28.7744 24.4573 28.5812Z" fill="#323232"/>
<path d="M34 14.2018H29.2286V15.8395H34V14.2018Z" fill="#323232"/>
<path d="M34 17.4773H29.2286V19.115H34V17.4773Z" fill="#323232"/>
<path d="M34 20.7528H29.2286V22.3905H34V20.7528Z" fill="#323232"/>
<path d="M34 24.0283H29.2286V25.666H34V24.0283Z" fill="#323232"/>
</svg>

<svg width="49" height="49" fill="none" xmlns="http://www.w3.org/2000/svg"><circle cx="24.5" cy="24.5" r="23.5" stroke="#323232" stroke-width="2"/><path d="M27.59 15.119c0-1.092-.42-2.14-1.171-2.913A3.942 3.942 0 0023.59 11c-1.06 0-2.078.434-2.828 1.206a4.182 4.182 0 00-1.172 2.913v11.988A5.822 5.822 0 0018 31.144a5.977 5.977 0 00.67 2.77 5.781 5.781 0 001.865 2.113c.782.534 1.68.86 2.615.948a5.522 5.522 0 002.74-.44 5.69 5.69 0 002.208-1.727 5.922 5.922 0 001.15-2.597c.168-.951.105-1.93-.184-2.85a5.865 5.865 0 00-1.474-2.418V15.12zm.144 16.025a4.292 4.292 0 01-.493 2.048 4.147 4.147 0 01-1.398 1.541 3.972 3.972 0 01-3.959.231 4.106 4.106 0 01-1.558-1.368 4.305 4.305 0 01-.403-4.062 4.178 4.178 0 011.258-1.665v-12.75c0-.658.254-1.29.706-1.755a2.375 2.375 0 011.703-.726c.64 0 1.252.261 1.704.726.452.466.706 1.097.706 1.755v12.594c.537.385.975.899 1.277 1.496.302.598.458 1.262.457 1.935z" fill="#323232"/><path d="M24.457 28.581V15.176a.832.832 0 00-.233-.579.784.784 0 00-.562-.24.784.784 0 00-.562.24.831.831 0 00-.233.58V28.58c-.53.193-.978.573-1.263 1.073a2.52 2.52 0 00-.293 1.659c.095.57.383 1.09.813 1.463.43.373.975.578 1.538.578.563 0 1.108-.205 1.538-.578.43-.374.718-.892.813-1.463a2.519 2.519 0 00-.293-1.659c-.285-.5-.732-.88-1.263-1.073zM34 14.202h-4.771v1.637H34v-1.637zM34 17.477h-4.771v1.638H34v-1.638zM34 20.753h-4.771v1.637H34v-1.637zM34 24.028h-4.771v1.638H34v-1.638z" fill="#323232"/></svg>
